X:096
U: ~ = !turn!
%%topmargin 3cm
T:Jackson's Morning Brush
B:Traditional Irish Fiddle Tunes. Randy Miller and Jack Perron.
Z:Transcribed by Ralph Palmer
R:Jig
M:6/8
L:1/8
K:D
AF | DFE {/F}EFD | DF/2E/2D AFA | BGB def | {/a}gfg ecA |
DFE {/F}EFD | DF/2E/2D AFA | BGB d2 e | fdd d2 ::
g | fed f/2g/2af | ede fdB | AFA def | ga/2g/2f/2g/2 e2 g |
fed f/2g/2af | ede fdB | AFA d2 e | fdd d2 ::
g | fdf ece | dBd AFA | DFA def | ga/2g/2f/2g/2 e2 g |
gdg ece | dcd AFA | DFA d2e | fdd d2 g |
fdf ece | dBd cAd | BGB AFA | GFG Efg |
afd gec | dBd AFD | DFA d2 e | fdd d2 |]
